X: 072
T: the General
B: C. & S. Thompson, "The Compleat Tutor for the Fife" c.1760 p.7 #2
S: http://imslp.org/wiki/The_Compleat_Tutor_for_the_Fife_(Anonymous)
Z: 2014 John Chambers <jc:trillian.mit.edu>
N: There is only a final repeat but no begin repeat, which seems rather pointless.
N: The tune contains 17 bars.
M: 2/4
L: 1/16
K: G
% - - - - - - - - - - - - - - - - - - - - - - - - -
|:\
G2de d2cB | c2d2 B4 | c2B2A2G2 | A2D2 G4 |\
TA2GA TB2AB | Tc2Bc d2e2 | d4 edcB | A2cB A2d2 |
G4 GABc | d2d2 edcB | A3c B2AG | d2d2 AcBA |\
G4 A2AG | B2BG A2AG | B3A GABc | d2d2 edcB |\
AcBA G4 :|
% - - - - - - - - - - - - - - - - - - - - - - - - -
